svg/color/fleta.svg

<?xml version="1.0" encoding="UTF-8" ?>
<!DOCTYPE svg PUBLIC "-//W3C//DTD SVG 1.1//EN" "http://www.w3.org/Graphics/SVG/1.1/DTD/svg11.dtd">
<svg width="250pt" height="250pt" viewBox="0 0 250 250" version="1.1" xmlns="http://www.w3.org/2000/svg">
<g id="#ffffffff">
<path fill="#ffffff" opacity="1.00" d=" M 0.00 0.00 L 250.00 0.00 L 250.00 250.00 L 0.00 250.00 L 0.00 0.00 M 53.44 83.58 C 53.25 99.71 53.44 115.85 53.34 131.99 C 53.68 131.94 54.36 131.86 54.70 131.81 C 100.05 105.69 145.30 79.40 190.71 53.37 C 190.71 53.11 190.72 52.60 190.73 52.34 C 176.73 44.53 162.95 36.33 149.02 28.39 C 117.17 46.80 85.30 65.18 53.44 83.58 M 151.59 88.47 C 118.89 107.44 86.02 126.18 53.40 145.28 C 53.39 161.61 53.21 177.97 53.49 194.29 C 69.33 203.24 84.95 212.60 100.83 221.46 C 100.81 203.24 100.87 185.01 100.80 166.79 C 131.40 149.06 162.06 131.43 192.67 113.71 C 193.99 112.89 195.52 112.34 196.58 111.14 C 182.48 103.47 168.66 95.24 154.69 87.33 C 153.52 86.89 152.55 88.01 151.59 88.47 Z" />
</g>
<g id="#01d3dfff">
<path fill="#01d3df" opacity="1.00" d=" M 53.44 83.58 C 85.30 65.18 117.17 46.80 149.02 28.39 C 162.95 36.33 176.73 44.53 190.73 52.34 C 190.72 52.60 190.71 53.11 190.71 53.37 C 145.30 79.40 100.05 105.69 54.70 131.81 C 54.36 131.86 53.68 131.94 53.34 131.99 C 53.44 115.85 53.25 99.71 53.44 83.58 Z" />
</g>
<g id="#114ef5ff">
<path fill="#114ef5" opacity="1.00" d=" M 151.59 88.47 C 152.55 88.01 153.52 86.89 154.69 87.33 C 168.66 95.24 182.48 103.47 196.58 111.14 C 195.52 112.34 193.99 112.89 192.67 113.71 C 162.06 131.43 131.40 149.06 100.80 166.79 C 85.04 175.97 69.07 184.81 53.49 194.29 C 53.21 177.97 53.39 161.61 53.40 145.28 C 86.02 126.18 118.89 107.44 151.59 88.47 Z" />
</g>
<g id="#4399ffff">
<path fill="#4399ff" opacity="1.00" d=" M 53.49 194.29 C 69.07 184.81 85.04 175.97 100.80 166.79 C 100.87 185.01 100.81 203.24 100.83 221.46 C 84.95 212.60 69.33 203.24 53.49 194.29 Z" />
</g>
</svg>

<?xml version="1.0" encoding="utf-8"?>
<!-- Generator: Adobe Illustrator 26.0.3, SVG Export Plug-In . SVG Version: 6.00 Build 0)  -->
<svg version="1.1" id="Layer_1" xmlns="http://www.w3.org/2000/svg" xmlns:xlink="http://www.w3.org/1999/xlink" x="0px" y="0px"
	 viewBox="0 0 250 250" style="enable-background:new 0 0 250 250;" xml:space="preserve">
<style type="text/css">
	.st0{fill:#01D3DF;}
	.st1{fill:#114EF5;}
	.st2{fill:#4399FF;}
</style>
<g id="_x23_01d3dfff">
	<path class="st0" d="M53.4,83.6c31.9-18.4,63.7-36.8,95.6-55.2c13.9,7.9,27.7,16.1,41.7,24c0,0.3,0,0.8,0,1
		c-45.4,26-90.7,52.3-136,78.4c-0.3,0.1-1,0.1-1.4,0.2C53.4,115.8,53.2,99.7,53.4,83.6z"/>
</g>
<g id="_x23_114ef5ff">
	<path class="st1" d="M151.6,88.5c1-0.5,1.9-1.6,3.1-1.1c14,7.9,27.8,16.1,41.9,23.8c-1.1,1.2-2.6,1.8-3.9,2.6
		c-30.6,17.7-61.3,35.3-91.9,53.1c-15.8,9.2-31.7,18-47.3,27.5c-0.3-16.3-0.1-32.7-0.1-49C86,126.2,118.9,107.4,151.6,88.5z"/>
</g>
<g id="_x23_4399ffff">
	<path class="st2" d="M53.5,194.3c15.6-9.5,31.5-18.3,47.3-27.5c0.1,18.2,0,36.5,0,54.7C84.9,212.6,69.3,203.2,53.5,194.3z"/>
</g>
</svg>
